assets/illustrations/default/professional-5.svg

<svg xmlns="http://www.w3.org/2000/svg" width="1080" height="1081" fill="none"><path fill="#141414" d="m485.384 144.17-80.54 9.737c-15.184 1.816-27.397 13.534-29.873 28.718l-33.668 201.846c-3.301 19.475 10.397 37.629 29.872 39.94l126.422 15.844zM615.771 144.17l80.54 9.737c15.184 1.816 27.397 13.534 29.873 28.718l33.668 201.846c3.301 19.475-10.397 37.629-29.872 39.94l-126.422 15.844z"/><path fill="#F5F5F5" d="m784.278 811.599-10.068-51.658h119.656l28.222 134.014h-.165c1.32 6.932 2.145 14.029 2.145 21.291 0 59.745-48.522 108.264-108.267 108.264s-108.268-48.519-108.268-108.264c0-48.853 32.349-90.113 76.745-103.647M299.217 811.599l10.068-51.658H189.63l-28.222 134.014h.165c-1.321 6.932-2.146 14.029-2.146 21.291 0 59.745 48.522 108.264 108.268 108.264 59.745 0 108.267-48.519 108.267-108.264-.165-48.853-32.348-90.113-76.745-103.647"/><path fill="#35DE90" d="m774.538 460.72-156.46-35.319H461.619l-156.46 35.319c-49.348 11.058-87.637 50.008-98.2 99.521L152 820.346h775.367l-54.959-260.105c-10.233-49.513-48.523-88.298-97.87-99.521"/><path fill="url(#a)" d="m359.954 648.538-26.572 171.809h190.789z"/><path fill="url(#b)" d="m719.58 648.538 26.572 171.809H555.364z"/><path fill="#84EBBC" d="M591.508 778.261h81.695c4.622 0 8.253-3.63 8.253-8.252v-97.704h-98.2v97.704c0 4.622 3.796 8.252 8.252 8.252"/><path fill="#8C3A03" d="M668.417 58.514H486.541l-13.863 13.863V414.51h134.344v-54.794h61.395l13.864-13.864V72.542z"/><path fill="#141414" d="m486.541 58.514-13.863 13.863-.826 156.79.991.66 138.8-139.295 70.638 85.491V72.377l-13.864-13.863z"/><path fill="#8C3A03" d="M456.175 284.621h38.124v-59.745h-51.658v46.212c0 7.427 6.107 13.533 13.534 13.533"/><path fill="url(#c)" d="M503.871 284.621h-31.193v72.619h31.193z"/><path fill="url(#d)" d="M559.653 378.695h47.367v-18.98h-47.367z"/><path fill="url(#e)" d="M607.023 422.596v-43.901H472.679v43.901l-21.786 5.612 81.696 88.462c3.961 4.291 10.563 4.291 14.524 0l81.695-88.462z"/><path fill="#141414" fill-rule="evenodd" d="M627.811 207.92a2.476 2.476 0 0 1 3.262 1.273l30.698 69.977a2.475 2.475 0 0 1-2.267 3.47H625.67a2.476 2.476 0 1 1 0-4.951h30.044l-29.175-66.507a2.475 2.475 0 0 1 1.272-3.262" clip-rule="evenodd"/><path fill="url(#f)" d="m457.988 737.495-110.908-5.941-12.873 83.346 34.328 18.485c16.67 6.106 34.329 8.252 51.989 6.436l51.493-5.281z"/><path fill="url(#g)" d="M783.119 1018.4 444.948 895.77c-3.301-1.155-5.446-4.291-5.446-7.757V731.059c0-5.612 5.281-9.573 10.562-7.922l332.89 100.51"/><path fill="url(#h)" d="m595.962 759.612 137.315-21.621 11.388 73.939-50.007 33.834c-15.844 7.756-33.339 11.717-50.998 11.717h-51.824z"/><path fill="url(#i)" d="m300.373 1018.4 338.171-122.63c3.301-1.155 5.446-4.291 5.446-7.757V731.059c0-5.612-5.281-9.573-10.562-7.922l-332.89 100.51"/><mask id="j" width="407" height="237" x="336" y="352" maskUnits="userSpaceOnUse" style="mask-type:luminance"><path fill="#fff" d="M471.358 484.487H336.189l1.486-127.743h134.674zm270.834-132.364H607.023v236.34h135.169z"/></mask><g mask="url(#j)"><path fill="#072F73" fill-rule="evenodd" d="M539.684 395.033c-74.579 0-136.324 70.5-136.324 159.596h-11.553c0-93.771 65.336-171.149 147.877-171.149 82.545 0 147.878 77.547 147.878 171.149v42.746h-11.553v-42.746c0-88.935-61.749-159.596-136.325-159.596" clip-rule="evenodd"/></g><path fill="#E0E0E0" d="M681.622 654.48c21.238 0 38.454-17.217 38.454-38.455s-17.216-38.455-38.454-38.455-38.455 17.217-38.455 38.455 17.217 38.455 38.455 38.455"/><path fill="#F5F5F5" d="M681.622 637.15c11.667 0 21.125-9.458 21.125-21.125s-9.458-21.126-21.125-21.126-21.125 9.459-21.125 21.126 9.458 21.125 21.125 21.125"/><path fill="#F5F5F5" fill-rule="evenodd" d="M350.312 558.199c5.571-25.34 29.472-42.41 55.347-39.356 25.877 3.055 45.11 25.167 44.571 51.22l-8.25-.17c.451-21.81-15.634-40.298-37.289-42.854-21.657-2.557-41.658 11.73-46.319 32.932z" clip-rule="evenodd"/><path fill="#072F73" fill-rule="evenodd" d="M353.321 518.234c5.753-26.167 30.434-43.794 57.152-40.64 26.722 3.155 46.585 25.991 46.028 52.893v.018l-2.805 117.983-.001.011c-.22 10.796-7.537 20.234-17.856 23.243l-.022.007-27.561 7.922-3.192-11.104 27.54-7.915.009-.003c5.517-1.613 9.418-6.691 9.532-12.392l.001-.022 2.805-117.987v-.006c.43-20.958-15.025-38.718-35.833-41.175-20.81-2.456-40.028 11.27-44.511 31.638l-.003.01-24.921 115.367-.005.022c-1.239 5.519 1.327 11.262 6.459 14.178l24.927 14.196-5.718 10.039-24.916-14.19c-9.384-5.332-14.409-16.081-12.03-26.729l.005-.024z" clip-rule="evenodd"/><path fill="#072F73" d="M364.245 680.556c7.748 0 14.028-6.281 14.028-14.028s-6.28-14.029-14.028-14.029-14.029 6.281-14.029 14.029c0 7.747 6.281 14.028 14.029 14.028M411.117 686.003c7.748 0 14.029-6.28 14.029-14.028s-6.281-14.029-14.029-14.029-14.028 6.281-14.028 14.029 6.28 14.028 14.028 14.028"/><path fill="#0096FA" fill-rule="evenodd" d="m452.937 440.274-7.717 9.678c-8.882 11.141-16.314 24.846-21.191 35.543l-5.135 11.263-22.526-10.269 5.135-11.263c5.356-11.749 13.767-27.421 24.36-40.707l7.717-9.678z" clip-rule="evenodd"/><path fill="#0096FA" fill-rule="evenodd" d="M366.749 484.193c12.047-9.971 27.909-15.205 44.594-13.327l.068.007.067.008c18.531 2.291 34.245 12.939 43.272 28.054l6.347 10.627-21.254 12.694-6.347-10.627c-5.156-8.633-14.171-14.812-24.988-16.17-9.696-1.072-18.895 1.946-25.976 7.806l-9.536 7.892-15.783-19.072z" clip-rule="evenodd"/><defs><linearGradient id="a" x1="452.703" x2="314.393" y1="725.486" y2="841.759" gradientUnits="userSpaceOnUse"><stop offset=".069" stop-color="#35DE90" stop-opacity="0"/><stop offset=".463" stop-color="#1F8B82" stop-opacity=".442"/><stop offset=".803" stop-color="#0E4977" stop-opacity=".822"/><stop offset=".962" stop-color="#072F73"/></linearGradient><linearGradient id="b" x1="629.249" x2="764.129" y1="727.729" y2="837.35" gradientUnits="userSpaceOnUse"><stop offset=".049" stop-color="#35DE90" stop-opacity="0"/><stop offset=".452" stop-color="#1F8B82" stop-opacity=".442"/><stop offset=".799" stop-color="#0E4977" stop-opacity=".822"/><stop offset=".962" stop-color="#072F73"/></linearGradient><linearGradient id="c" x1="517.064" x2="434.898" y1="330.043" y2="304.1" gradientUnits="userSpaceOnUse"><stop offset=".158" stop-color="#8C3A03"/><stop offset=".31" stop-color="#883904"/><stop offset=".464" stop-color="#7C3505"/><stop offset=".62" stop-color="#672E08"/><stop offset=".776" stop-color="#4B250C"/><stop offset=".931" stop-color="#271A11"/><stop offset="1" stop-color="#141414"/></linearGradient><linearGradient id="d" x1="556.98" x2="613.448" y1="390.503" y2="344.89" gradientUnits="userSpaceOnUse"><stop offset=".158" stop-color="#8C3A03"/><stop offset=".31" stop-color="#883904"/><stop offset=".464" stop-color="#7C3505"/><stop offset=".62" stop-color="#672E08"/><stop offset=".776" stop-color="#4B250C"/><stop offset=".931" stop-color="#271A11"/><stop offset="1" stop-color="#141414"/></linearGradient><linearGradient id="e" x1="540.333" x2="539.499" y1="532.53" y2="377.61" gradientUnits="userSpaceOnUse"><stop offset=".124" stop-color="#E0E0E0"/><stop offset="1" stop-color="#F5F5F5"/></linearGradient><linearGradient id="f" x1="334.653" x2="561.511" y1="780.829" y2="799.779" gradientUnits="userSpaceOnUse"><stop offset=".201" stop-color="#8C3A03"/><stop offset=".335" stop-color="#883803"/><stop offset=".47" stop-color="#7C3303"/><stop offset=".606" stop-color="#672B02"/><stop offset=".743" stop-color="#4B1F02"/><stop offset=".879" stop-color="#271001"/><stop offset="1"/></linearGradient><linearGradient id="g" x1="501.219" x2="730.309" y1="708.221" y2="1018.29" gradientUnits="userSpaceOnUse"><stop stop-color="#F5F5F5"/><stop offset=".089" stop-color="#EBEBEB"/><stop offset=".155" stop-color="#E0E0E0"/><stop offset=".602" stop-color="#EEE"/><stop offset=".991" stop-color="#F5F5F5"/></linearGradient><linearGradient id="h" x1="779.003" x2="558.532" y1="788.687" y2="811.547" gradientUnits="userSpaceOnUse"><stop offset=".201" stop-color="#8C3A03"/><stop offset=".429" stop-color="#8A3903"/><stop offset=".56" stop-color="#813603"/><stop offset=".667" stop-color="#733002"/><stop offset=".761" stop-color="#5F2802"/><stop offset=".847" stop-color="#461D01"/><stop offset=".924" stop-color="#261001"/><stop offset=".997" stop-color="#010100"/><stop offset="1"/></linearGradient><linearGradient id="i" x1="363.705" x2="605.351" y1="807.879" y2="951.929" gradientUnits="userSpaceOnUse"><stop offset=".165" stop-color="#F5F5F5"/><stop offset=".489" stop-color="#EDEDED"/><stop offset=".813" stop-color="#E0E0E0"/></linearGradient></defs></svg>

<svg width="1080" height="1081" viewBox="0 0 1080 1081" fill="none" xmlns="http://www.w3.org/2000/svg">
<path d="M485.384 144.17L404.844 153.907C389.66 155.723 377.447 167.441 374.971 182.625L341.303 384.471C338.002 403.946 351.7 422.1 371.175 424.411L497.597 440.255L485.384 144.17Z" fill="#141414"/>
<path d="M615.771 144.17L696.311 153.907C711.495 155.723 723.708 167.441 726.184 182.625L759.852 384.471C763.153 403.946 749.455 422.1 729.98 424.411L603.558 440.255L615.771 144.17Z" fill="#141414"/>
<path d="M784.278 811.599L774.21 759.941H893.866L922.088 893.955H921.923C923.243 900.887 924.068 907.984 924.068 915.246C924.068 974.991 875.546 1023.51 815.801 1023.51C756.056 1023.51 707.533 974.991 707.533 915.246C707.533 866.393 739.882 825.133 784.278 811.599Z" fill="#F5F5F5"/>
<path d="M299.217 811.599L309.285 759.941H189.63L161.408 893.955H161.573C160.252 900.887 159.427 907.984 159.427 915.246C159.427 974.991 207.949 1023.51 267.695 1023.51C327.44 1023.51 375.962 974.991 375.962 915.246C375.797 866.393 343.614 825.133 299.217 811.599Z" fill="#F5F5F5"/>
<path d="M774.538 460.72L618.078 425.401H539.848H461.619L305.159 460.72C255.811 471.778 217.522 510.728 206.959 560.241L152 820.346H539.683H927.367L872.408 560.241C862.175 510.728 823.885 471.943 774.538 460.72Z" fill="#35DE90"/>
<path d="M359.954 648.538L333.382 820.347H524.171L359.954 648.538Z" fill="url(#paint0_linear_18735_2954)"/>
<path d="M719.58 648.538L746.152 820.347H555.364L719.58 648.538Z" fill="url(#paint1_linear_18735_2954)"/>
<path d="M591.508 778.261H673.203C677.825 778.261 681.456 774.631 681.456 770.009V672.305H583.256V770.009C583.256 774.631 587.052 778.261 591.508 778.261Z" fill="#84EBBC"/>
<path d="M668.417 58.5137H486.541L472.678 72.3772V414.509H607.022V359.715H668.417C673.864 354.269 676.835 351.298 682.281 345.851V72.5422L668.417 58.5137Z" fill="#8C3A03"/>
<path d="M486.541 58.5137L472.678 72.3772L471.852 229.167L472.843 229.827L611.643 90.5318L682.281 176.023V72.3772L668.417 58.5137H486.541Z" fill="#141414"/>
<path d="M456.175 284.621H494.299V224.876H442.641V271.088C442.641 278.515 448.748 284.621 456.175 284.621Z" fill="#8C3A03"/>
<path d="M503.871 284.621H472.678V357.24H503.871V284.621Z" fill="url(#paint2_linear_18735_2954)"/>
<path d="M559.653 378.695H607.02V359.715H559.653V378.695Z" fill="url(#paint3_linear_18735_2954)"/>
<path d="M607.023 422.596V378.695H472.679V422.596L450.893 428.208L532.589 516.67C536.55 520.961 543.152 520.961 547.113 516.67L628.808 428.208L607.023 422.596Z" fill="url(#paint4_linear_18735_2954)"/>
<path fill-rule="evenodd" clip-rule="evenodd" d="M627.811 207.92C629.063 207.371 630.524 207.941 631.073 209.193L661.771 279.17C662.106 279.936 662.033 280.819 661.576 281.519C661.119 282.219 660.339 282.64 659.504 282.64H625.67C624.303 282.64 623.194 281.532 623.194 280.165C623.194 278.798 624.303 277.689 625.67 277.689H655.714L626.539 211.182C625.989 209.93 626.559 208.469 627.811 207.92Z" fill="#141414"/>
<path d="M457.988 737.495L347.08 731.554L334.207 814.9L368.535 833.385C385.205 839.491 402.864 841.637 420.524 839.821L472.017 834.54L457.988 737.495Z" fill="url(#paint5_linear_18735_2954)"/>
<path d="M783.119 1018.4L444.948 895.77C441.647 894.615 439.502 891.479 439.502 888.013V731.059C439.502 725.447 444.783 721.486 450.064 723.137L782.954 823.647" fill="url(#paint6_linear_18735_2954)"/>
<path d="M595.962 759.612L733.277 737.991L744.665 811.93L694.658 845.764C678.814 853.52 661.319 857.481 643.66 857.481H591.836L595.962 759.612Z" fill="url(#paint7_linear_18735_2954)"/>
<path d="M300.373 1018.4L638.544 895.77C641.845 894.615 643.99 891.479 643.99 888.013V731.059C643.99 725.447 638.709 721.486 633.428 723.137L300.538 823.647" fill="url(#paint8_linear_18735_2954)"/>
<mask id="mask0_18735_2954" style="mask-type:luminance" maskUnits="userSpaceOnUse" x="336" y="352" width="407" height="237">
<path d="M471.358 484.487H336.189L337.675 356.744H472.349L471.358 484.487ZM742.192 352.123H607.023V588.463H742.192V352.123Z" fill="white"/>
</mask>
<g mask="url(#mask0_18735_2954)">
<path fill-rule="evenodd" clip-rule="evenodd" d="M539.684 395.033C465.105 395.033 403.36 465.533 403.36 554.629H391.807C391.807 460.858 457.143 383.48 539.684 383.48C622.229 383.48 687.562 461.027 687.562 554.629V597.375H676.009V554.629C676.009 465.694 614.26 395.033 539.684 395.033Z" fill="#072F73"/>
</g>
<path d="M681.622 654.48C702.86 654.48 720.076 637.263 720.076 616.025C720.076 594.787 702.86 577.57 681.622 577.57C660.384 577.57 643.167 594.787 643.167 616.025C643.167 637.263 660.384 654.48 681.622 654.48Z" fill="#E0E0E0"/>
<path d="M681.622 637.15C693.289 637.15 702.747 627.692 702.747 616.025C702.747 604.358 693.289 594.899 681.622 594.899C669.955 594.899 660.497 604.358 660.497 616.025C660.497 627.692 669.955 637.15 681.622 637.15Z" fill="#F5F5F5"/>
<path fill-rule="evenodd" clip-rule="evenodd" d="M350.312 558.199C355.883 532.859 379.784 515.789 405.659 518.843C431.536 521.898 450.769 544.01 450.23 570.063L441.98 569.893C442.431 548.083 426.346 529.595 404.691 527.039C383.034 524.482 363.033 538.769 358.372 559.971L350.312 558.199Z" fill="#F5F5F5"/>
<path fill-rule="evenodd" clip-rule="evenodd" d="M353.321 518.234C359.074 492.067 383.755 474.44 410.473 477.594C437.195 480.749 457.058 503.585 456.501 530.487L456.501 530.505L453.696 648.488C453.696 648.492 453.695 648.496 453.695 648.499C453.475 659.295 446.158 668.733 435.839 671.742L435.817 671.749L408.256 679.671L405.064 668.567L432.604 660.652C432.607 660.651 432.61 660.65 432.613 660.649C438.13 659.036 442.031 653.958 442.145 648.257L442.146 648.235L444.951 530.248C444.951 530.246 444.951 530.244 444.951 530.242C445.381 509.284 429.926 491.524 409.118 489.067C388.308 486.611 369.09 500.337 364.607 520.705C364.606 520.709 364.605 520.712 364.604 520.715L339.683 636.082L339.678 636.104C338.439 641.623 341.005 647.366 346.137 650.282L371.064 664.478L365.346 674.517L340.43 660.327C331.046 654.995 326.021 644.246 328.4 633.598C328.402 633.59 328.403 633.582 328.405 633.574L353.321 518.234Z" fill="#072F73"/>
<path d="M364.245 680.556C371.993 680.556 378.273 674.275 378.273 666.528C378.273 658.78 371.993 652.499 364.245 652.499C356.497 652.499 350.216 658.78 350.216 666.528C350.216 674.275 356.497 680.556 364.245 680.556Z" fill="#072F73"/>
<path d="M411.117 686.003C418.865 686.003 425.146 679.723 425.146 671.975C425.146 664.227 418.865 657.946 411.117 657.946C403.369 657.946 397.089 664.227 397.089 671.975C397.089 679.723 403.369 686.003 411.117 686.003Z" fill="#072F73"/>
<path fill-rule="evenodd" clip-rule="evenodd" d="M452.937 440.274L445.22 449.952C436.338 461.093 428.906 474.798 424.029 485.495L418.894 496.758L396.368 486.489L401.503 475.226C406.859 463.477 415.27 447.805 425.863 434.519L433.58 424.841L452.937 440.274Z" fill="#0096FA"/>
<path fill-rule="evenodd" clip-rule="evenodd" d="M366.749 484.193C378.796 474.222 394.658 468.988 411.343 470.866L411.411 470.873L411.478 470.881C430.009 473.172 445.723 483.82 454.75 498.935L461.097 509.562L439.843 522.256L433.496 511.629C428.34 502.996 419.325 496.817 408.508 495.459C398.812 494.387 389.613 497.405 382.532 503.265L372.996 511.157L357.213 492.085L366.749 484.193Z" fill="#0096FA"/>
<defs>
<linearGradient id="paint0_linear_18735_2954" x1="452.703" y1="725.486" x2="314.393" y2="841.759" gradientUnits="userSpaceOnUse">
<stop offset="0.069479" stop-color="#35DE90" stop-opacity="0"/>
<stop offset="0.4634" stop-color="#1F8B82" stop-opacity="0.4416"/>
<stop offset="0.8028" stop-color="#0E4977" stop-opacity="0.822"/>
<stop offset="0.9616" stop-color="#072F73"/>
</linearGradient>
<linearGradient id="paint1_linear_18735_2954" x1="629.249" y1="727.729" x2="764.129" y2="837.35" gradientUnits="userSpaceOnUse">
<stop offset="0.0494531" stop-color="#35DE90" stop-opacity="0"/>
<stop offset="0.4523" stop-color="#1F8B82" stop-opacity="0.4416"/>
<stop offset="0.7992" stop-color="#0E4977" stop-opacity="0.822"/>
<stop offset="0.9616" stop-color="#072F73"/>
</linearGradient>
<linearGradient id="paint2_linear_18735_2954" x1="517.064" y1="330.043" x2="434.898" y2="304.1" gradientUnits="userSpaceOnUse">
<stop offset="0.1577" stop-color="#8C3A03"/>
<stop offset="0.31" stop-color="#883904"/>
<stop offset="0.4643" stop-color="#7C3505"/>
<stop offset="0.6196" stop-color="#672E08"/>
<stop offset="0.7756" stop-color="#4B250C"/>
<stop offset="0.9307" stop-color="#271A11"/>
<stop offset="1" stop-color="#141414"/>
</linearGradient>
<linearGradient id="paint3_linear_18735_2954" x1="556.98" y1="390.503" x2="613.448" y2="344.89" gradientUnits="userSpaceOnUse">
<stop offset="0.1577" stop-color="#8C3A03"/>
<stop offset="0.31" stop-color="#883904"/>
<stop offset="0.4643" stop-color="#7C3505"/>
<stop offset="0.6196" stop-color="#672E08"/>
<stop offset="0.7756" stop-color="#4B250C"/>
<stop offset="0.9307" stop-color="#271A11"/>
<stop offset="1" stop-color="#141414"/>
</linearGradient>
<linearGradient id="paint4_linear_18735_2954" x1="540.333" y1="532.53" x2="539.499" y2="377.61" gradientUnits="userSpaceOnUse">
<stop offset="0.1245" stop-color="#E0E0E0"/>
<stop offset="1" stop-color="#F5F5F5"/>
</linearGradient>
<linearGradient id="paint5_linear_18735_2954" x1="334.653" y1="780.829" x2="561.511" y2="799.779" gradientUnits="userSpaceOnUse">
<stop offset="0.2011" stop-color="#8C3A03"/>
<stop offset="0.3347" stop-color="#883803"/>
<stop offset="0.4701" stop-color="#7C3303"/>
<stop offset="0.6064" stop-color="#672B02"/>
<stop offset="0.7434" stop-color="#4B1F02"/>
<stop offset="0.8794" stop-color="#271001"/>
<stop offset="1"/>
</linearGradient>
<linearGradient id="paint6_linear_18735_2954" x1="501.219" y1="708.221" x2="730.309" y2="1018.29" gradientUnits="userSpaceOnUse">
<stop stop-color="#F5F5F5"/>
<stop offset="0.0886688" stop-color="#EBEBEB"/>
<stop offset="0.1546" stop-color="#E0E0E0"/>
<stop offset="0.6015" stop-color="#EEEEEE"/>
<stop offset="0.9912" stop-color="#F5F5F5"/>
</linearGradient>
<linearGradient id="paint7_linear_18735_2954" x1="779.003" y1="788.687" x2="558.532" y2="811.547" gradientUnits="userSpaceOnUse">
<stop offset="0.2011" stop-color="#8C3A03"/>
<stop offset="0.4287" stop-color="#8A3903"/>
<stop offset="0.5603" stop-color="#813603"/>
<stop offset="0.6673" stop-color="#733002"/>
<stop offset="0.7613" stop-color="#5F2802"/>
<stop offset="0.8466" stop-color="#461D01"/>
<stop offset="0.9245" stop-color="#261001"/>
<stop offset="0.9974" stop-color="#010100"/>
<stop offset="1"/>
</linearGradient>
<linearGradient id="paint8_linear_18735_2954" x1="363.705" y1="807.879" x2="605.351" y2="951.929" gradientUnits="userSpaceOnUse">
<stop offset="0.1646" stop-color="#F5F5F5"/>
<stop offset="0.4888" stop-color="#EDEDED"/>
<stop offset="0.8131" stop-color="#E0E0E0"/>
</linearGradient>
</defs>
</svg>
